packages/netlify-cms-ui-default/src/Icon/images/gitlab.svg

<svg height="26" width="26" xmlns="http://www.w3.org/2000/svg"><g fill="none"><path d="m22.616 14.971-1.096-3.471-2.173-6.882a.37.37 0 0 0 -.71 0l-2.172 6.882h-7.213l-2.173-6.883a.37.37 0 0 0 -.71 0l-2.172 6.882-1.097 3.472c-.1.317.01.664.27.86l9.487 7.094 9.487-7.094a.781.781 0 0 0 .27-.86" fill="#fc6d26"/><path d="m12.858 22.925 3.607-11.425h-7.214z" fill="#e24329"/><path d="m12.858 22.925-3.607-11.425h-5.054z" fill="#fc6d26"/><path d="m4.197 11.499-1.097 3.472c-.1.317.01.664.27.86l9.487 7.094-8.66-11.425z" fill="#fca326"/><path d="m4.197 11.499h5.053l-2.17-6.882a.37.37 0 0 0 -.71 0l-2.172 6.882z" fill="#e24329"/><path d="m12.858 22.925 3.607-11.425h5.055z" fill="#fc6d26"/><path d="m21.52 11.499 1.096 3.472c.1.317-.01.664-.271.86l-9.487 7.094 8.662-11.425z" fill="#fca326"/><path d="m21.52 11.499h-5.055l2.172-6.882a.37.37 0 0 1 .71 0z" fill="#e24329"/></g></svg>

<svg width="26" height="26" xmlns="http://www.w3.org/2000/svg"><g fill-rule="nonzero" fill="none"><path d="M22.616 14.971L21.52 11.5l-2.173-6.882a.37.37 0 0 0-.71 0l-2.172 6.882H9.252L7.079 4.617a.37.37 0 0 0-.71 0l-2.172 6.882L3.1 14.971c-.1.317.01.664.27.86l9.487 7.094 9.487-7.094a.781.781 0 0 0 .27-.86" fill="#FC6D26"/><path d="M12.858 22.925L16.465 11.5H9.251z" fill="#E24329"/><path d="M12.858 22.925L9.251 11.5H4.197z" fill="#FC6D26"/><path d="M4.197 11.499L3.1 14.971c-.1.317.01.664.27.86l9.487 7.094L4.197 11.5z" fill="#FCA326"/><path d="M4.197 11.499H9.25L7.08 4.617a.37.37 0 0 0-.71 0l-2.172 6.882z" fill="#E24329"/><path d="M12.858 22.925L16.465 11.5h5.055z" fill="#FC6D26"/><path d="M21.52 11.499l1.096 3.472c.1.317-.01.664-.271.86l-9.487 7.094L21.52 11.5z" fill="#FCA326"/><path d="M21.52 11.499h-5.055l2.172-6.882a.37.37 0 0 1 .71 0l2.173 6.882z" fill="#E24329"/></g></svg>
